name_svg/Castratio.svg

<?xml version="1.0" encoding="UTF-8"?>
<svg id="_레이어_2" data-name="레이어 2" xmlns="http://www.w3.org/2000/svg" viewBox="0 0 902.81 211.26">
  <g id="kerning">
    <g>
      <path d="M240.8,203.57c-18.12,0-23.36-8.76-23.36-34.8h-.02v-4.48c0-.2,0-.39,0-.59v-54.72c0-18.19-7.36-25.4-17.89-19.97l-47.57,32.82-18.09,12.24v32.24l18.09-12.48v-25.5l29.64-20.63c7.57-5.27,17.93-4.46,17.93,16.05v13.49s-65.66,45.29-65.66,45.29v10.64c0,9.99,12,18.09,23.91,18.09h22.73c7.21-3.01,13.62-5.96,19.01-9.59h0c0,1.89,4.72,9.59,14.37,9.59h30.09v-7.69h-3.2ZM179.76,203.57h-8.66c-10.56,0-19.13-8.56-19.13-19.13v-8.3l47.57-32.81v26.93c0,26.84-19.78,33.31-19.78,33.31Z"/>
      <path d="M325.75,120.73v-11.75c0-18.19-7.36-25.4-17.89-19.97l-47.57,32.82-18.09,12.24v25.83c0,15.85,17.79,25.19,30.83,16.19l34.82-24.02v18.2c0,26.84-19.78,33.31-19.78,33.31h-6.57c-9.99,0-18.21-7.5-19.39-17.17h-17.92c1.74,13.88,10.51,24.87,24.13,24.87h20.51c22.18-9.25,36.91-17.95,36.91-47.56v-30.06l-17.89,12.34-31.92,22.02c-6.62,4.57-15.65-.17-15.65-8.22v-31.45l29.64-20.63c7.57-5.27,17.93-4.46,17.93,16.05v9.32s17.89-12.35,17.89-12.35Z"/>
      <path d="M519.22,102.71l-44.34,30.59v-42.93s-46.89,34.68-46.89,34.68c-1.1.82-.16,2.52,1.13,2.04,3.65-1.39,8.11-4.24,12.81-6.78,6.81-3.67,15.07,1.33,15.07,9.06l.02,41.15c0,21.13-2.56,31.67-17.4,33.05-6.43.6-18.66,7.69-7.76,7.69h69.6v-7.69h-3.2c-18.12,0-23.36-8.76-23.36-34.8h-.02v-28.99s44.34-30.86,44.34-30.86v37.73l17.89-12.34v-43.95l-17.89,12.34Z"/>
      <path d="M418.95,164.85v5.4c0,23.48-28.27,33.31-28.27,33.31h-.54c-10.77,0-19.75-13.17-19.75-22.52v-98.98l39.45-27.21v-6.07l-39.45,27.22V18.94h0V2.69l-46.89,34.68c-1.1.82-.16,2.52,1.13,2.04,3.65-1.39,8.11-4.24,12.81-6.78,6.81-3.67,15.07,1.33,15.07,9.06v46.64l-17.97,12.39v6.07l17.97-12.39v56.41h.01v30.43c0,16.22,9.19,30.02,24.46,30.02h16.65c22.18-9.25,43.23-22.03,43.23-47.56v-11.19l-17.89,12.34Z"/>
      <path d="M653.48,203.57c-18.12,0-23.36-8.76-23.36-34.8h-.02v-4.48c0-.2,0-.39,0-.59v-54.72c0-18.19-7.36-25.4-17.89-19.97l-47.57,32.82-18.09,12.24v32.24l18.09-12.48v-25.5l29.64-20.63c7.57-5.27,17.93-4.46,17.93,16.05v13.49s-65.66,45.29-65.66,45.29v10.64c0,9.99,12,18.09,23.91,18.09h22.73c7.21-3.01,13.62-5.96,19.01-9.59h0c0,1.89,4.72,9.59,14.37,9.59h30.09v-7.69h-3.2ZM592.44,203.57h-8.66c-10.56,0-19.13-8.56-19.13-19.13v-8.3l47.57-32.81v26.93c0,26.84-19.78,33.31-19.78,33.31Z"/>
      <path d="M733.02,164.85v5.4c0,23.48-28.27,33.31-28.27,33.31h-.54c-10.77,0-19.75-13.17-19.75-22.52v-98.98l39.45-27.21v-6.07l-39.45,27.22V18.94h0V2.69l-46.89,34.68c-1.1.82-.16,2.52,1.13,2.04,3.65-1.39,8.11-4.24,12.81-6.78,6.81-3.67,15.07,1.33,15.07,9.06v46.64l-17.97,12.39v6.07l17.97-12.39v56.41h.01v30.43c0,16.22,9.19,30.02,24.46,30.02h16.65c22.18-9.25,43.23-22.03,43.23-47.56v-11.19l-17.89,12.34Z"/>
      <g>
        <path d="M813.05,203.57c-14,0-23.36-8.76-23.36-34.8v-99.36h0v-16.25l-46.89,34.68c-1.1.82-.16,2.52,1.13,2.04,3.65-1.39,8.11-4.24,12.81-6.78,6.81-3.67,15.07,1.33,15.07,9.06v78.36c0,21.13-7.28,33.05-18.72,33.05,0,0-4.74-.37-7.42,0-6.39.88-18.66,7.69-7.76,7.69h88.51v-7.69h-13.36Z"/>
        <path d="M768.01,26.99v17.13l20.92-15.34V2.69l-13.69,10.04c-4.54,3.33-7.22,8.62-7.22,14.26Z"/>
      </g>
      <path d="M115.14,5.09c-3.14-5.32-8.27-6.54-14.52-3.33L17.89,58.86,0,71.21v92.86c0,33.18,22.59,47.2,40.48,47.2h35.29c22.18-9.25,42.75-17.95,42.75-47.56v-23.99l-17.89,12.34v18.2c0,26.84-25.62,33.31-25.62,33.31h-22.45c-15.48,0-34.66-7.36-34.66-42.69v-95.57L84.48,19.37c3.49-1.87,7.33-2.36,10.39-.29,1.26.85,2.39,2.14,3.3,3.95,1.51,2.97,2.44,7.34,2.44,13.49v22.54l17.89-12.34v-24.98c0-7.41-1.22-12.99-3.38-16.64Z"/>
      <path d="M899.43,91.7c-3.14-5.32-8.27-6.54-14.52-3.33l-66.25,45.73v29.96c0,33.18,22.59,47.2,40.48,47.2,0,0,43.66-12.21,43.66-47.56v-55.35c0-7.41-1.22-12.99-3.38-16.64ZM884.92,152.06v18.2c0,26.84-25.62,33.31-25.62,33.31h-2.51c-5.31-.39-20.23-7.36-20.23-42.69v-32.68l32.22-22.22c3.49-1.87,7.33-2.36,10.39-.29,1.26.85,2.39,2.14,3.3,3.95,1.51,2.97,2.44,7.34,2.44,13.49v28.93h0Z"/>
    </g>
  </g>
</svg>

<svg width="903" height="212" viewBox="0 0 903 212" fill="none" xmlns="http://www.w3.org/2000/svg">
<g clip-path="url(#clip0_1_32)">
<path d="M240.8 203.57C222.68 203.57 217.44 194.81 217.44 168.77H217.42V164.29C217.42 164.09 217.42 163.9 217.42 163.7V108.98C217.42 90.79 210.06 83.58 199.53 89.01L151.96 121.83L133.87 134.07V166.31L151.96 153.83V128.33L181.6 107.7C189.17 102.43 199.53 103.24 199.53 123.75V137.24L133.87 182.53V193.17C133.87 203.16 145.87 211.26 157.78 211.26H180.51C187.72 208.25 194.13 205.3 199.52 201.67C199.52 203.56 204.24 211.26 213.89 211.26H243.98V203.57H240.78H240.8ZM179.76 203.57H171.1C160.54 203.57 151.97 195.01 151.97 184.44V176.14L199.54 143.33V170.26C199.54 197.1 179.76 203.57 179.76 203.57Z" fill="white"/>
<path d="M325.75 120.73V108.98C325.75 90.79 318.39 83.58 307.86 89.01L260.29 121.83L242.2 134.07V159.9C242.2 175.75 259.99 185.09 273.03 176.09L307.85 152.07V170.27C307.85 197.11 288.07 203.58 288.07 203.58H281.5C271.51 203.58 263.29 196.08 262.11 186.41H244.19C245.93 200.29 254.7 211.28 268.32 211.28H288.83C311.01 202.03 325.74 193.33 325.74 163.72V133.66L307.85 146L275.93 168.02C269.31 172.59 260.28 167.85 260.28 159.8V128.35L289.92 107.72C297.49 102.45 307.85 103.26 307.85 123.77V133.09L325.74 120.74L325.75 120.73Z" fill="white"/>
<path d="M519.22 102.71L474.88 133.3V90.37L427.99 125.05C426.89 125.87 427.83 127.57 429.12 127.09C432.77 125.7 437.23 122.85 441.93 120.31C448.74 116.64 457 121.64 457 129.37L457.02 170.52C457.02 191.65 454.46 202.19 439.62 203.57C433.19 204.17 420.96 211.26 431.86 211.26H501.46V203.57H498.26C480.14 203.57 474.9 194.81 474.9 168.77H474.88V139.78L519.22 108.92V146.65L537.11 134.31V90.36L519.22 102.7V102.71Z" fill="white"/>
<path d="M418.95 164.85V170.25C418.95 193.73 390.68 203.56 390.68 203.56H390.14C379.37 203.56 370.39 190.39 370.39 181.04V82.06L409.84 54.85V48.78L370.39 76V18.94V2.69L323.5 37.37C322.4 38.19 323.34 39.89 324.63 39.41C328.28 38.02 332.74 35.17 337.44 32.63C344.25 28.96 352.51 33.96 352.51 41.69V88.33L334.54 100.72V106.79L352.51 94.4V150.81H352.52V181.24C352.52 197.46 361.71 211.26 376.98 211.26H393.63C415.81 202.01 436.86 189.23 436.86 163.7V152.51L418.97 164.85H418.95Z" fill="white"/>
<path d="M653.48 203.57C635.36 203.57 630.12 194.81 630.12 168.77H630.1V164.29C630.1 164.09 630.1 163.9 630.1 163.7V108.98C630.1 90.79 622.74 83.58 612.21 89.01L564.64 121.83L546.55 134.07V166.31L564.64 153.83V128.33L594.28 107.7C601.85 102.43 612.21 103.24 612.21 123.75V137.24L546.55 182.53V193.17C546.55 203.16 558.55 211.26 570.46 211.26H593.19C600.4 208.25 606.81 205.3 612.2 201.67C612.2 203.56 616.92 211.26 626.57 211.26H656.66V203.57H653.46H653.48ZM592.44 203.57H583.78C573.22 203.57 564.65 195.01 564.65 184.44V176.14L612.22 143.33V170.26C612.22 197.1 592.44 203.57 592.44 203.57Z" fill="white"/>
<path d="M733.02 164.85V170.25C733.02 193.73 704.75 203.56 704.75 203.56H704.21C693.44 203.56 684.46 190.39 684.46 181.04V82.06L723.91 54.85V48.78L684.46 76V18.94V2.69L637.57 37.37C636.47 38.19 637.41 39.89 638.7 39.41C642.35 38.02 646.81 35.17 651.51 32.63C658.32 28.96 666.58 33.96 666.58 41.69V88.33L648.61 100.72V106.79L666.58 94.4V150.81H666.59V181.24C666.59 197.46 675.78 211.26 691.05 211.26H707.7C729.88 202.01 750.93 189.23 750.93 163.7V152.51L733.04 164.85H733.02Z" fill="white"/>
<path d="M813.05 203.57C799.05 203.57 789.69 194.81 789.69 168.77V69.41V53.16L742.8 87.84C741.7 88.66 742.64 90.36 743.93 89.88C747.58 88.49 752.04 85.64 756.74 83.1C763.55 79.43 771.81 84.43 771.81 92.16V170.52C771.81 191.65 764.53 203.57 753.09 203.57C753.09 203.57 748.35 203.2 745.67 203.57C739.28 204.45 727.01 211.26 737.91 211.26H826.42V203.57H813.06H813.05Z" fill="white"/>
<path d="M768.01 26.99V44.12L788.93 28.78V2.69L775.24 12.73C770.7 16.06 768.02 21.35 768.02 26.99H768.01Z" fill="white"/>
<path d="M115.14 5.09C112 -0.229997 106.87 -1.45 100.62 1.76L17.89 58.86L0 71.21V164.07C0 197.25 22.59 211.27 40.48 211.27H75.77C97.95 202.02 118.52 193.32 118.52 163.71V139.72L100.63 152.06V170.26C100.63 197.1 75.01 203.57 75.01 203.57H52.56C37.08 203.57 17.9 196.21 17.9 160.88V65.31L84.48 19.37C87.97 17.5 91.81 17.01 94.87 19.08C96.13 19.93 97.26 21.22 98.17 23.03C99.68 26 100.61 30.37 100.61 36.52V59.06L118.5 46.72V21.74C118.5 14.33 117.28 8.75 115.12 5.1L115.14 5.09Z" fill="white"/>
<path d="M899.43 91.7C896.29 86.38 891.16 85.16 884.91 88.37L818.66 134.1V164.06C818.66 197.24 841.25 211.26 859.14 211.26C859.14 211.26 902.8 199.05 902.8 163.7V108.35C902.8 100.94 901.58 95.36 899.42 91.71L899.43 91.7ZM884.92 152.06V170.26C884.92 197.1 859.3 203.57 859.3 203.57H856.79C851.48 203.18 836.56 196.21 836.56 160.88V128.2L868.78 105.98C872.27 104.11 876.11 103.62 879.17 105.69C880.43 106.54 881.56 107.83 882.47 109.64C883.98 112.61 884.91 116.98 884.91 123.13V152.06H884.92Z" fill="white"/>
</g>
<defs>
<clipPath id="clip0_1_32">
<rect width="902.81" height="211.26" fill="white"/>
</clipPath>
</defs>
</svg>
